X: 43310
T: Woods Of Fanad, The
R: slip jig
M: 9/8
K: Dmajor
|:A/G/|F2 D D3 D3|F2 D D3 A2 G|F2 D D3 D3|G2 F E2 F G2:|
|:F2 A d2 c d3|F2 A d2 c dAG|F2 A d2c d2 A|G2 F E2 F GFE:|

